public/shooting-star.svg

<?xml version="1.0" encoding="iso-8859-1"?>
<!-- Generator: Adobe Illustrator 19.0.0, SVG Export Plug-In . SVG Version: 6.00 Build 0)  -->
<svg version="1.1" id="Layer_1" xmlns="http://www.w3.org/2000/svg" xmlns:xlink="http://www.w3.org/1999/xlink" x="0px" y="0px"
	 viewBox="0 0 512.13 512.13" style="enable-background:new 0 0 512.13 512.13;" xml:space="preserve">
<g>
	<g>
		<g>
			<path d="M224.444,224.378c-3.337,3.337-3.337,8.738,0,12.066l34.125,34.125c1.664,1.673,3.849,2.5,6.033,2.5
				c2.185,0,4.369-0.828,6.033-2.5c3.337-3.328,3.337-8.73,0-12.066l-34.125-34.125C233.174,221.05,227.781,221.05,224.444,224.378z
				"/>
			<path d="M225.699,116.952c1.69,2.005,4.105,3.046,6.545,3.046c1.937,0,3.883-0.657,5.478-1.997
				c3.61-3.038,4.079-8.414,1.05-12.023l-30.43-36.258c-3.029-3.601-8.414-4.079-12.023-1.05c-3.61,3.029-4.079,8.414-1.05,12.023
				L225.699,116.952z"/>
			<path d="M204.869,213.336c2.185,0,4.369-0.836,6.033-2.5c3.337-3.337,3.337-8.738,0-12.066l-34.116-34.116
				c-3.337-3.328-8.73-3.328-12.066,0c-3.337,3.337-3.337,8.738,0,12.066l34.116,34.116
				C200.5,212.499,202.684,213.336,204.869,213.336z"/>
			<path d="M147.559,250.43c-3.533-3.14-8.909-2.833-12.049,0.7c-3.14,3.516-2.825,8.909,0.691,12.049l37.393,33.331
				c1.621,1.451,3.652,2.159,5.675,2.159c2.347,0,4.685-0.956,6.374-2.85c3.132-3.516,2.825-8.917-0.691-12.049L147.559,250.43z"/>
			<path d="M170.94,52.252c1.69,1.997,4.096,3.021,6.519,3.021c1.946,0,3.9-0.666,5.504-2.014c3.601-3.046,4.045-8.431,1.007-12.032
				L151.655,3.023c-3.055-3.601-8.422-4.045-12.032-0.998c-3.593,3.046-4.045,8.422-1.007,12.023L170.94,52.252z"/>
			<path d="M283.691,184.723c1.698,1.988,4.096,3.012,6.511,3.012c1.963,0,3.917-0.666,5.521-2.022
				c3.593-3.046,4.036-8.431,0.99-12.032l-32.802-38.664c-3.038-3.576-8.431-4.028-12.032-0.99
				c-3.593,3.055-4.028,8.439-0.981,12.032L283.691,184.723z"/>
			<path d="M428.169,269.272c1.638,2.466,4.352,3.797,7.108,3.797c1.63,0,3.268-0.461,4.727-1.434
				c3.925-2.611,4.983-7.91,2.364-11.827l-170.667-256c-2.611-3.925-7.919-4.992-11.836-2.372
				c-3.917,2.611-4.975,7.919-2.364,11.836L428.169,269.272z"/>
			<path d="M510.225,293.805c-3.746-8.073-12.433-13.261-20.915-12.126c-7.253,0.956-70.033,10.351-89.907,13.329l-42.069-76.715
				c-5.53-11.196-12.416-13.551-17.212-13.551c-10.146,0-17.271,10.155-19.063,20.181c-1.749,9.754-10.103,65.502-12.843,83.823
				c-19.277,4.506-81.903,19.106-91.785,20.873c-8.841,1.579-18.5,7.381-20.164,16.768c-0.785,4.429-0.239,12.971,12.297,20.275
				c14.148,8.252,59.631,35.703,74.487,44.681l-9.677,77.005c-0.751,6.007,1.169,12.126,5.291,16.794
				c3.917,4.446,9.361,6.989,14.95,6.989c4.762,0,9.318-1.801,13.056-5.094c7.159-6.042,48.802-42.035,61.943-53.41
				c19.081,7.859,88.235,36.343,97.374,40.243c3.661,1.57,7.305,2.364,10.82,2.364c6.997,0,13.124-3.294,16.41-8.815
				c3.652-6.118,3.405-13.952-0.427-20.966c-4.19-9.122-32.196-68.804-40.516-86.519l54.878-65.041
				C512.35,308.73,513.502,300.845,510.225,293.805z M494.115,303.891l-58.411,69.205c-2.15,2.551-2.62,6.118-1.203,9.131
				c0,0.009,37.862,80.632,43.042,91.853c1.306,2.406,1.314,4.104,1.007,4.608c-0.137,0.239-0.777,0.478-1.741,0.478
				c-0.819,0-2.202-0.171-4.113-0.99c-10.667-4.548-98.705-40.789-102.443-42.334c-2.978-1.203-6.383-0.666-8.832,1.442
				c0,0-57.267,49.536-65.903,56.832c-0.973,0.862-2.731,1.237-4.053-0.265c-0.87-0.973-1.297-2.236-1.152-3.371l10.368-82.517
				c0.41-3.337-1.169-6.613-4.053-8.363c-0.623-0.375-62.43-37.743-79.462-47.676c-2.142-1.246-3.209-2.227-3.721-2.807
				c0.913-0.862,3.012-2.167,5.99-2.697c12.1-2.167,94.805-21.547,98.321-22.374c3.396-0.802,5.973-3.593,6.485-7.049
				c0.12-0.785,11.605-77.841,13.619-89.062c0.393-2.21,1.391-4.156,2.236-5.299c0.521,0.691,1.237,1.801,2.108,3.541l45.099,82.253
				c1.724,3.14,5.197,4.898,8.747,4.335c0.87-0.128,87.194-13.073,95.573-14.174c0.819,0,2.449,0.939,3.132,2.406
				C495.079,301.69,495.284,302.483,494.115,303.891z"/>
			<path d="M139.094,151.093c1.664,1.673,3.849,2.5,6.033,2.5c2.185,0,4.369-0.828,6.033-2.5c3.337-3.328,3.337-8.73,0-12.066
				l-34.125-34.125c-3.328-3.328-8.73-3.328-12.066,0c-3.337,3.336-3.337,8.738,0,12.066L139.094,151.093z"/>
			<path d="M3.081,151.58l37.734,32c1.604,1.357,3.567,2.022,5.513,2.022c2.423,0,4.83-1.024,6.519-3.012
				c3.046-3.593,2.603-8.977-0.99-12.023l-37.734-32c-3.601-3.046-8.986-2.611-12.032,0.981
				C-0.955,143.149-0.512,148.533,3.081,151.58z"/>
			<path d="M252.655,436.909L13.722,257.717c-3.78-2.842-9.122-2.057-11.947,1.698c-2.825,3.772-2.065,9.122,1.707,11.947
				l238.933,179.2c1.536,1.152,3.337,1.707,5.111,1.707c2.594,0,5.163-1.178,6.835-3.413
				C257.186,445.092,256.427,439.742,252.655,436.909z"/>
			<path d="M28.186,40.186c1.664,1.672,3.849,2.5,6.033,2.5c2.185,0,4.369-0.828,6.033-2.5c3.337-3.328,3.337-8.73,0-12.066
				L14.635,2.503c-3.328-3.328-8.73-3.328-12.066,0c-3.336,3.337-3.336,8.738,0,12.066L28.186,40.186z"/>
			<path d="M81.187,194.562c-3.601-3.046-8.986-2.603-12.023,0.99c-3.046,3.593-2.603,8.977,0.99,12.032l35.994,30.532
				c1.604,1.357,3.567,2.022,5.521,2.022c2.415,0,4.821-1.024,6.511-3.012c3.046-3.593,2.603-8.977-0.99-12.032L81.187,194.562z"/>
			<path d="M79.352,91.352c1.664,1.673,3.849,2.5,6.033,2.5c2.185,0,4.369-0.828,6.033-2.5c3.336-3.328,3.336-8.73,0-12.066
				L65.835,53.703c-3.328-3.328-8.73-3.328-12.066,0c-3.337,3.337-3.337,8.738,0,12.066L79.352,91.352z"/>
		</g>
	</g>
</g>
<g>
</g>
<g>
</g>
<g>
</g>
<g>
</g>
<g>
</g>
<g>
</g>
<g>
</g>
<g>
</g>
<g>
</g>
<g>
</g>
<g>
</g>
<g>
</g>
<g>
</g>
<g>
</g>
<g>
</g>
</svg>

<svg width="513" height="513" viewBox="0 0 513 513" fill="none" xmlns="http://www.w3.org/2000/svg">
<path d="M224.444 224.378C221.107 227.715 221.107 233.116 224.444 236.444L258.569 270.569C260.233 272.242 262.418 273.069 264.602 273.069C266.787 273.069 268.971 272.241 270.635 270.569C273.972 267.241 273.972 261.839 270.635 258.503L236.51 224.378C233.174 221.05 227.781 221.05 224.444 224.378Z" fill="#BFCA49"/>
<path d="M225.699 116.952C227.389 118.957 229.804 119.998 232.244 119.998C234.181 119.998 236.127 119.341 237.722 118.001C241.332 114.963 241.801 109.587 238.772 105.978L208.342 69.72C205.313 66.119 199.928 65.641 196.319 68.67C192.709 71.699 192.24 77.084 195.269 80.693L225.699 116.952Z" fill="#BFCA49"/>
<path d="M204.869 213.336C207.054 213.336 209.238 212.5 210.902 210.836C214.239 207.499 214.239 202.098 210.902 198.77L176.786 164.654C173.449 161.326 168.056 161.326 164.72 164.654C161.383 167.991 161.383 173.392 164.72 176.72L198.836 210.836C200.5 212.499 202.684 213.336 204.869 213.336Z" fill="#BFCA49"/>
<path d="M147.559 250.43C144.026 247.29 138.65 247.597 135.51 251.13C132.37 254.646 132.685 260.039 136.201 263.179L173.594 296.51C175.215 297.961 177.246 298.669 179.269 298.669C181.616 298.669 183.954 297.713 185.643 295.819C188.775 292.303 188.468 286.902 184.952 283.77L147.559 250.43Z" fill="#BFCA49"/>
<path d="M170.94 52.252C172.63 54.249 175.036 55.273 177.459 55.273C179.405 55.273 181.359 54.607 182.963 53.259C186.564 50.213 187.008 44.828 183.97 41.227L151.655 3.02298C148.6 -0.578021 143.233 -1.02202 139.623 2.02498C136.03 5.07098 135.578 10.447 138.616 14.048L170.94 52.252Z" fill="#BFCA49"/>
<path d="M283.691 184.723C285.389 186.711 287.787 187.735 290.202 187.735C292.165 187.735 294.119 187.069 295.723 185.713C299.316 182.667 299.759 177.282 296.713 173.681L263.911 135.017C260.873 131.441 255.48 130.989 251.879 134.027C248.286 137.082 247.851 142.466 250.898 146.059L283.691 184.723Z" fill="#BFCA49"/>
<path d="M428.169 269.272C429.807 271.738 432.521 273.069 435.277 273.069C436.907 273.069 438.545 272.608 440.004 271.635C443.929 269.024 444.987 263.725 442.368 259.808L271.701 3.80795C269.09 -0.117054 263.782 -1.18405 259.865 1.43595C255.948 4.04695 254.89 9.35495 257.501 13.2719L428.169 269.272Z" fill="#BFCA49"/>
<path d="M510.225 293.805C506.479 285.732 497.792 280.544 489.31 281.679C482.057 282.635 419.277 292.03 399.403 295.008L357.334 218.293C351.804 207.097 344.918 204.742 340.122 204.742C329.976 204.742 322.851 214.897 321.059 224.923C319.31 234.677 310.956 290.425 308.216 308.746C288.939 313.252 226.313 327.852 216.431 329.619C207.59 331.198 197.931 337 196.267 346.387C195.482 350.816 196.028 359.358 208.564 366.662C222.712 374.914 268.195 402.365 283.051 411.343L273.374 488.348C272.623 494.355 274.543 500.474 278.665 505.142C282.582 509.588 288.026 512.131 293.615 512.131C298.377 512.131 302.933 510.33 306.671 507.037C313.83 500.995 355.473 465.002 368.614 453.627C387.695 461.486 456.849 489.97 465.988 493.87C469.649 495.44 473.293 496.234 476.808 496.234C483.805 496.234 489.932 492.94 493.218 487.419C496.87 481.301 496.623 473.467 492.791 466.453C488.601 457.331 460.595 397.649 452.275 379.934L507.153 314.893C512.35 308.73 513.502 300.845 510.225 293.805ZM494.115 303.891L435.704 373.096C433.554 375.647 433.084 379.214 434.501 382.227C434.501 382.236 472.363 462.859 477.543 474.08C478.849 476.486 478.857 478.184 478.55 478.688C478.413 478.927 477.773 479.166 476.809 479.166C475.99 479.166 474.607 478.995 472.696 478.176C462.029 473.628 373.991 437.387 370.253 435.842C367.275 434.639 363.87 435.176 361.421 437.284C361.421 437.284 304.154 486.82 295.518 494.116C294.545 494.978 292.787 495.353 291.465 493.851C290.595 492.878 290.168 491.615 290.313 490.48L300.681 407.963C301.091 404.626 299.512 401.35 296.628 399.6C296.005 399.225 234.198 361.857 217.166 351.924C215.024 350.678 213.957 349.697 213.445 349.117C214.358 348.255 216.457 346.95 219.435 346.42C231.535 344.253 314.24 324.873 317.756 324.046C321.152 323.244 323.729 320.453 324.241 316.997C324.361 316.212 335.846 239.156 337.86 227.935C338.253 225.725 339.251 223.779 340.096 222.636C340.617 223.327 341.333 224.437 342.204 226.177L387.303 308.43C389.027 311.57 392.5 313.328 396.05 312.765C396.92 312.637 483.244 299.692 491.623 298.591C492.442 298.591 494.072 299.53 494.755 300.997C495.079 301.69 495.284 302.483 494.115 303.891Z" fill="#BFCA49"/>
<path d="M139.094 151.093C140.758 152.766 142.943 153.593 145.127 153.593C147.312 153.593 149.496 152.765 151.16 151.093C154.497 147.765 154.497 142.363 151.16 139.027L117.035 104.902C113.707 101.574 108.305 101.574 104.969 104.902C101.632 108.238 101.632 113.64 104.969 116.968L139.094 151.093Z" fill="#BFCA49"/>
<path d="M3.08101 151.58L40.815 183.58C42.419 184.937 44.382 185.602 46.328 185.602C48.751 185.602 51.158 184.578 52.847 182.59C55.893 178.997 55.45 173.613 51.857 170.567L14.123 138.567C10.522 135.521 5.13701 135.956 2.09101 139.548C-0.954987 143.149 -0.511987 148.533 3.08101 151.58Z" fill="#BFCA49"/>
<path d="M252.655 436.909L13.722 257.717C9.94201 254.875 4.60001 255.66 1.77501 259.415C-1.04999 263.187 -0.289994 268.537 3.48201 271.362L242.415 450.562C243.951 451.714 245.752 452.269 247.526 452.269C250.12 452.269 252.689 451.091 254.361 448.856C257.186 445.092 256.427 439.742 252.655 436.909Z" fill="#BFCA49"/>
<path d="M28.186 40.1858C29.85 41.8578 32.035 42.6858 34.219 42.6858C36.404 42.6858 38.588 41.8578 40.252 40.1858C43.589 36.8578 43.589 31.4558 40.252 28.1198L14.635 2.50284C11.307 -0.825164 5.90502 -0.825164 2.56902 2.50284C-0.766984 5.83984 -0.766984 11.2408 2.56902 14.5688L28.186 40.1858Z" fill="#BFCA49"/>
<path d="M81.187 194.562C77.586 191.516 72.201 191.959 69.164 195.552C66.118 199.145 66.561 204.529 70.154 207.584L106.148 238.116C107.752 239.473 109.715 240.138 111.669 240.138C114.084 240.138 116.49 239.114 118.18 237.126C121.226 233.533 120.783 228.149 117.19 225.094L81.187 194.562Z" fill="#BFCA49"/>
<path d="M79.352 91.352C81.016 93.025 83.201 93.852 85.385 93.852C87.57 93.852 89.754 93.024 91.418 91.352C94.754 88.024 94.754 82.622 91.418 79.286L65.835 53.703C62.507 50.375 57.105 50.375 53.769 53.703C50.432 57.04 50.432 62.441 53.769 65.769L79.352 91.352Z" fill="#BFCA49"/>
</svg>
